build/img/logo-desktop.svg

<svg width="134" height="52" viewBox="0 0 134 52" fill="none" xmlns="http://www.w3.org/2000/svg">
<path d="M67.5064 21.5227V23.8353H56.1351V7.25H67.2962V9.5626H58.7503V14.2812H66.1521V16.4537H58.7503V21.5227H67.5064Z" fill="white"/>
<path d="M74.1768 24.0689C73.1962 24.0689 72.2155 23.9132 71.2348 23.6017C70.2697 23.2747 69.4369 22.8153 68.7364 22.2235L69.7638 20.5883C70.4954 21.1178 71.2192 21.5227 71.9353 21.803C72.6513 22.0678 73.383 22.2002 74.1301 22.2002C74.8929 22.2002 75.4922 22.0522 75.9281 21.7563C76.3795 21.4604 76.6052 21.04 76.6052 20.4949C76.6052 19.981 76.3561 19.6072 75.858 19.3736C75.3599 19.14 74.5816 18.8831 73.5231 18.6028C72.7603 18.4003 72.1065 18.2057 71.5617 18.0188C71.0169 17.8319 70.5732 17.6139 70.2308 17.3647C69.8883 17.1155 69.6393 16.8274 69.4836 16.5004C69.3279 16.1734 69.2501 15.7763 69.2501 15.3091C69.2501 14.6861 69.3668 14.1333 69.6003 13.6505C69.8494 13.1678 70.1841 12.7629 70.6044 12.4358C71.0402 12.0932 71.5461 11.8363 72.1221 11.665C72.698 11.4937 73.3207 11.408 73.99 11.408C74.9085 11.408 75.7646 11.5482 76.5585 11.8285C77.3524 12.1088 78.0607 12.5137 78.6833 13.0432L77.5859 14.5849C76.4495 13.6817 75.2431 13.2301 73.9667 13.2301C73.3129 13.2301 72.7603 13.3702 72.3089 13.6505C71.873 13.9153 71.6551 14.3435 71.6551 14.9353C71.6551 15.1845 71.7018 15.3947 71.7952 15.566C71.8886 15.7373 72.0365 15.8853 72.2388 16.0099C72.4568 16.1344 72.7292 16.2512 73.0561 16.3602C73.3985 16.4537 73.8188 16.5627 74.3169 16.6873C75.142 16.8897 75.8502 17.0922 76.4417 17.2946C77.0488 17.4971 77.547 17.7385 77.9361 18.0188C78.3253 18.2835 78.6133 18.6028 78.8001 18.9765C78.9869 19.3347 79.0802 19.7708 79.0802 20.2847C79.0802 21.4526 78.6366 22.3792 77.7493 23.0645C76.8776 23.7341 75.6868 24.0689 74.1768 24.0689Z" fill="white"/>
<path d="M80.5301 17.7151C80.5301 16.8586 80.678 16.0488 80.9737 15.2857C81.2695 14.5226 81.6898 13.853 82.2346 13.2768C82.795 12.7006 83.4644 12.249 84.2427 11.9219C85.021 11.5793 85.8927 11.408 86.8578 11.408C88.1187 11.408 89.2006 11.6883 90.1034 12.249C91.0218 12.794 91.7068 13.5259 92.1582 14.4448L89.6598 15.239C89.364 14.7251 88.9671 14.328 88.4689 14.0476C87.9708 13.7518 87.4182 13.6038 86.8111 13.6038C86.2974 13.6038 85.8149 13.705 85.3635 13.9075C84.9276 14.1099 84.5462 14.398 84.2193 14.7718C83.8924 15.13 83.6356 15.5582 83.4488 16.0566C83.262 16.5549 83.1686 17.1078 83.1686 17.7151C83.1686 18.3069 83.262 18.8597 83.4488 19.3736C83.6512 19.872 83.9158 20.308 84.2427 20.6818C84.5851 21.0555 84.9743 21.3514 85.4102 21.5694C85.8616 21.7719 86.3364 21.8731 86.8345 21.8731C87.1458 21.8731 87.4571 21.8342 87.7685 21.7563C88.0798 21.6629 88.36 21.5383 88.609 21.3826C88.8737 21.2268 89.0994 21.0477 89.2862 20.8453C89.4885 20.6428 89.6364 20.4248 89.7298 20.1912L92.2516 20.9387C91.8469 21.8575 91.1697 22.6128 90.2202 23.2046C89.2706 23.7808 88.1498 24.0689 86.8578 24.0689C85.9083 24.0689 85.0444 23.8976 84.266 23.555C83.4877 23.2124 82.8184 22.753 82.258 22.1768C81.7132 21.585 81.2851 20.9076 80.9737 20.1445C80.678 19.3814 80.5301 18.5716 80.5301 17.7151Z" fill="white"/>
<path d="M97.6125 24.0689C97.021 24.0689 96.4684 23.9755 95.9547 23.7886C95.4565 23.5862 95.0207 23.3136 94.6471 22.971C94.2891 22.6284 94.0011 22.2235 93.7832 21.7563C93.5808 21.2891 93.4796 20.783 93.4796 20.2379C93.4796 19.6617 93.6041 19.14 93.8532 18.6728C94.1023 18.2057 94.4525 17.8008 94.9039 17.4582C95.3709 17.1155 95.9157 16.8508 96.5384 16.6639C97.1766 16.477 97.8771 16.3836 98.6399 16.3836C99.2158 16.3836 99.784 16.4381 100.344 16.5471C100.905 16.6406 101.411 16.7729 101.862 16.9442V16.1033C101.862 15.2001 101.605 14.4993 101.092 14.0009C100.578 13.487 99.8385 13.2301 98.8734 13.2301C98.2196 13.2301 97.5736 13.3546 96.9353 13.6038C96.3127 13.8374 95.6667 14.18 94.9973 14.6316L94.2034 12.9965C95.7757 11.9375 97.4101 11.408 99.1069 11.408C100.788 11.408 102.096 11.8363 103.03 12.6928C103.964 13.5493 104.431 14.7796 104.431 16.3836V20.7986C104.431 21.3436 104.656 21.6239 105.108 21.6395V23.8353C104.859 23.882 104.641 23.9132 104.454 23.9288C104.283 23.9443 104.111 23.9521 103.94 23.9521C103.442 23.9521 103.053 23.8275 102.773 23.5784C102.508 23.3292 102.345 23.01 102.282 22.6206L102.212 21.8498C101.668 22.5661 100.99 23.119 100.181 23.5083C99.3871 23.882 98.5309 24.0689 97.6125 24.0689ZM98.313 22.1768C98.9356 22.1768 99.5194 22.0678 100.064 21.8498C100.625 21.6162 101.06 21.2969 101.372 20.892C101.699 20.6117 101.862 20.3158 101.862 20.0043V18.3925C101.426 18.2212 100.959 18.0889 100.461 17.9954C99.9786 17.902 99.5038 17.8553 99.0368 17.8553C98.1184 17.8553 97.3634 18.0577 96.7719 18.4626C96.1959 18.8519 95.908 19.3736 95.908 20.0277C95.908 20.6351 96.1337 21.149 96.5851 21.5694C97.0365 21.9743 97.6125 22.1768 98.313 22.1768Z" fill="white"/>
<path d="M114.481 24.0689C113.501 24.0689 112.637 23.8353 111.89 23.3681C111.142 22.9009 110.551 22.2936 110.115 21.5461V28.8109H107.547V11.6182H109.812V13.8141C110.279 13.0821 110.878 12.4981 111.609 12.0621C112.357 11.626 113.197 11.408 114.131 11.408C114.972 11.408 115.742 11.5793 116.443 11.9219C117.143 12.2645 117.75 12.7239 118.264 13.3001C118.778 13.8763 119.175 14.546 119.455 15.3091C119.751 16.0721 119.899 16.8742 119.899 17.7151C119.899 18.6028 119.766 19.4359 119.502 20.2146C119.237 20.9777 118.863 21.6473 118.381 22.2235C117.898 22.7841 117.322 23.2358 116.653 23.5784C115.999 23.9054 115.275 24.0689 114.481 24.0689ZM113.641 21.8731C114.186 21.8731 114.676 21.7563 115.112 21.5227C115.563 21.2891 115.945 20.9777 116.256 20.5883C116.583 20.199 116.832 19.7552 117.003 19.2568C117.174 18.7585 117.26 18.2446 117.26 17.7151C117.26 17.1545 117.159 16.625 116.956 16.1267C116.77 15.6283 116.505 15.1923 116.163 14.8185C115.836 14.4448 115.439 14.1489 114.972 13.9308C114.505 13.7128 113.999 13.6038 113.454 13.6038C113.127 13.6038 112.785 13.6661 112.427 13.7907C112.069 13.9153 111.734 14.0866 111.423 14.3046C111.111 14.5226 110.839 14.7796 110.605 15.0755C110.372 15.3558 110.208 15.6672 110.115 16.0099V19.2101C110.271 19.5839 110.473 19.9343 110.722 20.2613C110.971 20.5883 111.244 20.8687 111.539 21.1022C111.851 21.3358 112.185 21.5227 112.543 21.6629C112.901 21.803 113.267 21.8731 113.641 21.8731Z" fill="white"/>
<path d="M127.742 24.0689C126.793 24.0689 125.929 23.9054 125.151 23.5784C124.372 23.2358 123.703 22.7764 123.142 22.2002C122.598 21.6239 122.17 20.9543 121.858 20.1912C121.562 19.4281 121.415 18.6183 121.415 17.7618C121.415 16.9053 121.562 16.0955 121.858 15.3324C122.17 14.5538 122.598 13.8763 123.142 13.3001C123.703 12.7084 124.372 12.249 125.151 11.9219C125.929 11.5793 126.801 11.408 127.766 11.408C128.715 11.408 129.571 11.5793 130.334 11.9219C131.112 12.2645 131.774 12.7239 132.319 13.3001C132.864 13.8608 133.276 14.5226 133.556 15.2857C133.852 16.0332 134 16.8197 134 17.645C134 17.8319 133.992 18.011 133.977 18.1823C133.961 18.338 133.946 18.4704 133.93 18.5794H124.146C124.193 19.1245 124.318 19.615 124.52 20.0511C124.738 20.4871 125.01 20.8687 125.337 21.1957C125.68 21.5071 126.061 21.7485 126.481 21.9198C126.917 22.0911 127.369 22.1768 127.836 22.1768C128.178 22.1768 128.513 22.1379 128.84 22.06C129.182 21.9666 129.494 21.842 129.774 21.6862C130.054 21.5149 130.303 21.3125 130.521 21.0789C130.739 20.8453 130.91 20.5883 131.035 20.308L133.229 20.9387C132.809 21.8575 132.109 22.6128 131.128 23.2046C130.163 23.7808 129.034 24.0689 127.742 24.0689ZM131.455 16.8041C131.408 16.2902 131.276 15.8152 131.058 15.3791C130.856 14.9431 130.591 14.5771 130.264 14.2812C129.937 13.9698 129.556 13.7284 129.12 13.5571C128.684 13.3858 128.225 13.3001 127.742 13.3001C127.26 13.3001 126.801 13.3858 126.365 13.5571C125.944 13.7284 125.571 13.9698 125.244 14.2812C124.917 14.5771 124.652 14.9431 124.45 15.3791C124.248 15.8152 124.123 16.2902 124.076 16.8041H131.455Z" fill="white"/>
<path d="M56.1351 47.1949V30.6096H63.3501C64.0973 30.6096 64.7822 30.7653 65.4049 31.0768C66.0431 31.3883 66.5879 31.8009 67.0394 32.3149C67.4908 32.8132 67.841 33.3894 68.0901 34.0435C68.3547 34.682 68.487 35.336 68.487 36.0057C68.487 36.5663 68.4092 37.1036 68.2535 37.6175C68.0979 38.1314 67.8799 38.6064 67.5998 39.0424C67.3196 39.4785 66.9771 39.86 66.5724 40.1871C66.1677 40.4985 65.724 40.7321 65.2415 40.8878L69.1408 47.1949H66.1754L62.5796 41.4251H58.7503V47.1949H56.1351ZM58.7503 39.1125H63.3268C63.7004 39.1125 64.0351 39.0346 64.3308 38.8789C64.6421 38.7076 64.9068 38.4818 65.1247 38.2015C65.3426 37.9056 65.5139 37.5708 65.6384 37.197C65.7629 36.8233 65.8252 36.4261 65.8252 36.0057C65.8252 35.5852 65.7474 35.1881 65.5917 34.8143C65.4516 34.4406 65.257 34.1136 65.008 33.8332C64.7745 33.5529 64.4943 33.3349 64.1674 33.1792C63.856 33.0079 63.5292 32.9222 63.1867 32.9222H58.7503V39.1125Z" fill="white"/>
<path d="M76.3905 47.4285C75.4254 47.4285 74.5537 47.2572 73.7753 46.9146C73.0126 46.572 72.3588 46.1126 71.814 45.5364C71.2692 44.9602 70.8489 44.2906 70.5531 43.5275C70.2573 42.7488 70.1095 41.939 70.1095 41.0981C70.1095 40.2571 70.2573 39.4551 70.5531 38.692C70.8489 37.9134 71.2692 37.236 71.814 36.6597C72.3744 36.0835 73.0359 35.6241 73.7987 35.2815C74.577 34.9389 75.4409 34.7676 76.3905 34.7676C77.34 34.7676 78.1962 34.9389 78.9589 35.2815C79.7373 35.6241 80.3988 36.0835 80.9437 36.6597C81.504 37.236 81.9321 37.9134 82.2279 38.692C82.5236 39.4551 82.6715 40.2571 82.6715 41.0981C82.6715 41.939 82.5236 42.7488 82.2279 43.5275C81.9321 44.2906 81.504 44.9602 80.9437 45.5364C80.3988 46.1126 79.7373 46.572 78.9589 46.9146C78.1962 47.2572 77.34 47.4285 76.3905 47.4285ZM72.748 41.1214C72.748 41.7132 72.8414 42.2583 73.0282 42.7566C73.215 43.2549 73.4718 43.691 73.7987 44.0647C74.1256 44.4229 74.507 44.711 74.9428 44.9291C75.3942 45.1315 75.8768 45.2327 76.3905 45.2327C76.9042 45.2327 77.379 45.1315 77.8148 44.9291C78.2662 44.711 78.6554 44.4151 78.9823 44.0414C79.3092 43.6676 79.566 43.2316 79.7528 42.7332C79.9396 42.2349 80.033 41.6899 80.033 41.0981C80.033 40.5219 79.9396 39.9846 79.7528 39.4863C79.566 38.9723 79.3092 38.5285 78.9823 38.1548C78.6554 37.781 78.2662 37.4929 77.8148 37.2905C77.379 37.0724 76.9042 36.9634 76.3905 36.9634C75.8924 36.9634 75.4176 37.0724 74.9662 37.2905C74.5303 37.5085 74.1489 37.8044 73.822 38.1781C73.4951 38.5519 73.2305 38.9957 73.0282 39.5096C72.8414 40.008 72.748 40.5452 72.748 41.1214Z" fill="white"/>
<path d="M90.4367 47.4285C89.4716 47.4285 88.5999 47.2572 87.8215 46.9146C87.0588 46.572 86.405 46.1126 85.8602 45.5364C85.3154 44.9602 84.8951 44.2906 84.5993 43.5275C84.3036 42.7488 84.1557 41.939 84.1557 41.0981C84.1557 40.2571 84.3036 39.4551 84.5993 38.692C84.8951 37.9134 85.3154 37.236 85.8602 36.6597C86.4206 36.0835 87.0821 35.6241 87.8449 35.2815C88.6232 34.9389 89.4871 34.7676 90.4367 34.7676C91.3862 34.7676 92.2424 34.9389 93.0051 35.2815C93.7835 35.6241 94.445 36.0835 94.9899 36.6597C95.5502 37.236 95.9783 37.9134 96.2741 38.692C96.5698 39.4551 96.7177 40.2571 96.7177 41.0981C96.7177 41.939 96.5698 42.7488 96.2741 43.5275C95.9783 44.2906 95.5502 44.9602 94.9899 45.5364C94.445 46.1126 93.7835 46.572 93.0051 46.9146C92.2424 47.2572 91.3862 47.4285 90.4367 47.4285ZM86.7942 41.1214C86.7942 41.7132 86.8876 42.2583 87.0744 42.7566C87.2612 43.2549 87.518 43.691 87.8449 44.0647C88.1718 44.4229 88.5532 44.711 88.989 44.9291C89.4404 45.1315 89.923 45.2327 90.4367 45.2327C90.9504 45.2327 91.4252 45.1315 91.861 44.9291C92.3124 44.711 92.7016 44.4151 93.0285 44.0414C93.3554 43.6676 93.6122 43.2316 93.799 42.7332C93.9858 42.2349 94.0792 41.6899 94.0792 41.0981C94.0792 40.5219 93.9858 39.9846 93.799 39.4863C93.6122 38.9723 93.3554 38.5285 93.0285 38.1548C92.7016 37.781 92.3124 37.4929 91.861 37.2905C91.4252 37.0724 90.9504 36.9634 90.4367 36.9634C89.9386 36.9634 89.4638 37.0724 89.0124 37.2905C88.5765 37.5085 88.1951 37.8044 87.8682 38.1781C87.5414 38.5519 87.2767 38.9957 87.0744 39.5096C86.8876 40.008 86.7942 40.5452 86.7942 41.1214Z" fill="white"/>
<path d="M117.675 47.1949H115.107V40.3506C115.107 39.2137 114.92 38.3806 114.547 37.8511C114.173 37.3216 113.628 37.0569 112.912 37.0569C112.18 37.0569 111.511 37.3294 110.904 37.8744C110.313 38.4039 109.884 39.0969 109.62 39.9535V47.1949H107.051V40.3506C107.051 39.1982 106.865 38.365 106.491 37.8511C106.117 37.3216 105.58 37.0569 104.88 37.0569C104.148 37.0569 103.479 37.3216 102.872 37.8511C102.265 38.3806 101.829 39.0736 101.564 39.9301V47.1949H98.9958V34.9779H101.331V37.4306C101.813 36.5741 102.444 35.92 103.222 35.4684C104.016 35.0012 104.919 34.7676 105.931 34.7676C106.942 34.7676 107.736 35.0324 108.312 35.5618C108.904 36.0913 109.27 36.7532 109.41 37.5474C109.923 36.6442 110.569 35.959 111.348 35.4918C112.126 35.009 113.013 34.7676 114.01 34.7676C114.726 34.7676 115.317 34.9078 115.784 35.1881C116.267 35.4528 116.648 35.811 116.928 36.2626C117.208 36.7143 117.403 37.2437 117.512 37.8511C117.621 38.4429 117.675 39.0736 117.675 39.7432V47.1949Z" fill="white"/>
<rect x="46.0483" y="21.5356" width="21.5741" height="2.28794" fill="white"/>
<rect x="46.0554" y="30.5619" width="16.0214" height="2.28097" fill="white"/>
<path fill-rule="evenodd" clip-rule="evenodd" d="M28.9059 42.5L12.2888 33.8917L12.5764 33.3522L29.1935 41.9605L28.9059 42.5Z" fill="white"/>
<path fill-rule="evenodd" clip-rule="evenodd" d="M38.7833 34.0652V16.1533H39.4016V34.0652H38.7833Z" fill="white"/>
<path fill-rule="evenodd" clip-rule="evenodd" d="M38.4741 22.9307L29.1302 28.3991L28.8634 27.8377L38.1584 22.4067L38.4741 22.9307Z" fill="white"/>
<path fill-rule="evenodd" clip-rule="evenodd" d="M37.538 15.5626L28.357 10.331L16.8252 17.0268L25.8062 22.1771L37.538 15.5626ZM28.3541 9.62539L15.6014 17.0301L25.8035 22.8806L38.7833 15.5626L38.2471 15.2627L28.3541 9.62539Z" fill="white"/>
<path d="M12.3868 33.9267L12.1234 33.7743L11.9688 22.1189L4.23995 17.6243M12.3868 33.9267L22.5849 28.1296M12.3868 33.9267L22.5849 39.225M23.0984 27.8377V39.4115L22.5849 39.225M23.0984 27.8377L4.23995 17.0301V13.9676L4.70369 13.6629L25.8808 1.70271L46.7287 14.12V21.5078H47.4007L47.4253 13.7106L25.8814 1L4.37813 13.1444L3.62164 13.6415V38.7831L26.3454 50.9999L28.6632 49.7471V49.7591L29.1178 49.5014L29.3588 49.3711V49.3648L47.3459 38.8506L47.372 31.3571H46.7287V38.4975L29.2815 48.7055V42.535L42.0335 35.4537L28.8634 27.8377M23.0984 27.8377L22.5849 28.1296M28.8634 27.8377L28.7405 27.9085V49.0103L26.3446 50.3053L4.23995 38.4213V17.6243M28.8634 27.8377L29.1302 28.3991L38.4741 22.9307L38.1584 22.4067L28.8634 27.8377ZM4.23995 17.6243V17.3957M22.5849 28.1296V39.225M38.2471 15.2627L28.3541 9.62539L15.6014 17.0301L25.8035 22.8806L38.7833 15.5626L38.2471 15.2627ZM21.8646 27.8356L12.7319 33.027L12.5925 22.5218L21.8646 27.8356ZM40.827 35.4708L29.3588 41.7721V28.8234L40.827 35.4708ZM28.357 10.331L37.538 15.5626L25.8062 22.1771L16.8252 17.0268L28.357 10.331ZM12.2888 33.8917L28.9059 42.5L29.1935 41.9605L12.5764 33.3522L12.2888 33.8917ZM38.7833 16.1533V34.0652H39.4016V16.1533H38.7833Z" stroke="white" stroke-width="1.5"/>
</svg>

<svg width="134" height="52" fill="none" xmlns="http://www.w3.org/2000/svg"><path d="M67.506 21.523v2.312h-11.37V7.25h11.16v2.313H58.75v4.718h7.402v2.173H58.75v5.069h8.756zm6.671 2.546c-.98 0-1.962-.156-2.942-.467-.965-.327-1.798-.787-2.499-1.378l1.028-1.636a9.81 9.81 0 002.171 1.215 6.281 6.281 0 002.195.397c.763 0 1.362-.148 1.798-.444.451-.296.677-.716.677-1.261 0-.514-.249-.888-.747-1.121-.498-.234-1.276-.49-2.335-.771a29.37 29.37 0 01-1.961-.584c-.545-.187-.989-.405-1.331-.654a2.296 2.296 0 01-.747-.865c-.156-.327-.234-.724-.234-1.19 0-.624.117-1.177.35-1.66.25-.482.584-.887 1.004-1.214.436-.343.942-.6 1.518-.771a6.525 6.525 0 011.868-.257c.919 0 1.775.14 2.569.42.793.28 1.502.686 2.124 1.215l-1.097 1.542c-1.136-.903-2.343-1.355-3.62-1.355-.653 0-1.206.14-1.657.42-.436.265-.654.694-.654 1.285 0 .25.047.46.14.631.094.171.242.32.444.444.218.124.49.241.817.35.343.094.763.203 1.26.327.826.203 1.534.405 2.126.608.607.202 1.105.443 1.494.724.39.265.677.584.864.958.187.358.28.794.28 1.308 0 1.168-.443 2.094-1.33 2.78-.872.67-2.063 1.004-3.573 1.004zm6.353-6.354c0-.856.148-1.666.444-2.43a6.102 6.102 0 011.26-2.008 6.018 6.018 0 012.009-1.355c.778-.343 1.65-.514 2.615-.514 1.26 0 2.343.28 3.245.841.919.545 1.604 1.277 2.055 2.196l-2.498.794a3.126 3.126 0 00-1.191-1.191 3.186 3.186 0 00-1.658-.444c-.514 0-.996.101-1.448.304-.435.202-.817.49-1.144.864a3.925 3.925 0 00-.77 1.285 4.693 4.693 0 00-.28 1.658c0 .592.093 1.145.28 1.659.202.498.467.934.794 1.308.342.373.731.67 1.167.887.452.203.926.304 1.425.304.31 0 .622-.039.934-.117.31-.093.591-.218.84-.373.265-.156.49-.335.677-.538.203-.202.35-.42.444-.654l2.522.748c-.405.919-1.082 1.674-2.032 2.266-.95.576-2.07.864-3.362.864-.95 0-1.814-.171-2.592-.514a6.317 6.317 0 01-2.008-1.378 6.724 6.724 0 01-1.284-2.032 6.664 6.664 0 01-.444-2.43zm17.082 6.354a4.812 4.812 0 01-1.657-.28 4.32 4.32 0 01-1.308-.818 4.008 4.008 0 01-.864-1.215 3.778 3.778 0 01-.303-1.518c0-.576.124-1.098.373-1.565.25-.467.6-.872 1.05-1.215a5.322 5.322 0 011.635-.794 7.456 7.456 0 012.102-.28 8.9 8.9 0 011.704.163 7.965 7.965 0 011.518.397v-.84c0-.904-.257-1.605-.77-2.103-.514-.514-1.254-.77-2.219-.77-.653 0-1.3.124-1.938.373a9.409 9.409 0 00-1.938 1.028l-.794-1.636c1.573-1.059 3.207-1.588 4.904-1.588 1.681 0 2.989.428 3.923 1.285.934.856 1.401 2.087 1.401 3.69V20.8c0 .545.225.825.677.84v2.196a6.577 6.577 0 01-.654.094 5.702 5.702 0 01-.514.023c-.498 0-.887-.125-1.167-.374a1.63 1.63 0 01-.491-.957l-.07-.771a5.524 5.524 0 01-2.031 1.658 5.95 5.95 0 01-2.569.56zm.701-1.892c.623 0 1.206-.11 1.751-.327.561-.234.996-.553 1.308-.958.327-.28.49-.576.49-.888v-1.612a7.717 7.717 0 00-1.401-.397 7.481 7.481 0 00-1.424-.14c-.919 0-1.674.203-2.265.608-.576.389-.864.91-.864 1.565 0 .607.226 1.121.677 1.541.452.405 1.028.608 1.728.608zm16.168 1.892c-.98 0-1.844-.234-2.591-.7a5.225 5.225 0 01-1.775-1.823v7.265h-2.568V11.618h2.265v2.196a5.373 5.373 0 011.797-1.752c.748-.436 1.588-.654 2.522-.654.841 0 1.611.171 2.312.514a5.88 5.88 0 011.821 1.378 6.185 6.185 0 011.191 2.01c.296.762.444 1.564.444 2.405 0 .888-.133 1.72-.397 2.5a6.338 6.338 0 01-1.121 2.009 5.667 5.667 0 01-1.728 1.354 4.788 4.788 0 01-2.172.49zm-.84-2.196a3.07 3.07 0 001.471-.35 3.515 3.515 0 001.144-.935c.327-.389.576-.833.747-1.331a4.718 4.718 0 00.257-1.542c0-.56-.101-1.09-.304-1.588a3.976 3.976 0 00-.793-1.308 3.568 3.568 0 00-2.709-1.215 3.11 3.11 0 00-1.027.187 4.075 4.075 0 00-1.004.514 3.843 3.843 0 00-.818.77c-.233.28-.397.592-.49.935v3.2c.156.374.358.724.607 1.051.249.327.522.608.817.841.312.234.646.42 1.004.56.358.141.724.211 1.098.211zm14.101 2.196c-.949 0-1.813-.164-2.591-.49a6.32 6.32 0 01-2.009-1.379 6.455 6.455 0 01-1.284-2.009 6.658 6.658 0 01-.443-2.43c0-.856.147-1.665.443-2.429a6.387 6.387 0 011.284-2.032 5.857 5.857 0 012.009-1.378c.778-.343 1.65-.514 2.615-.514.949 0 1.805.171 2.568.514.778.342 1.44.802 1.985 1.378.545.56.957 1.223 1.237 1.986a6.35 6.35 0 01.421 2.896 9.638 9.638 0 01-.047.397h-9.784c.047.546.172 1.036.374 1.472.218.436.49.818.817 1.145a3.86 3.86 0 001.144.724c.436.171.888.257 1.355.257a4.32 4.32 0 001.004-.117c.342-.093.654-.218.934-.374.28-.171.529-.373.747-.607a2.79 2.79 0 00.514-.771l2.194.63c-.42.92-1.12 1.675-2.101 2.267-.965.576-2.094.864-3.386.864zm3.713-7.265a3.964 3.964 0 00-.397-1.425 3.37 3.37 0 00-.794-1.098 3.491 3.491 0 00-1.144-.724 3.733 3.733 0 00-1.378-.257c-.482 0-.941.086-1.377.257a3.55 3.55 0 00-1.121.724 3.37 3.37 0 00-.794 1.098 4.295 4.295 0 00-.374 1.425h7.379zm-75.32 30.391V30.61h7.215c.747 0 1.432.155 2.055.467a5.163 5.163 0 011.634 1.238 5.421 5.421 0 011.051 1.729 5.08 5.08 0 01.397 1.962c0 .56-.078 1.098-.233 1.611a5.652 5.652 0 01-.654 1.425 4.79 4.79 0 01-1.028 1.145 4.366 4.366 0 01-1.33.7l3.899 6.308h-2.966l-3.595-5.77h-3.83v5.77h-2.615zm2.615-8.083h4.577a2.12 2.12 0 001.004-.233 2.56 2.56 0 00.794-.677 3.728 3.728 0 00.7-2.196c0-.42-.078-.818-.233-1.192a3.1 3.1 0 00-.584-.98 2.458 2.458 0 00-.84-.655 2.006 2.006 0 00-.981-.257H58.75v6.19zm17.64 8.316c-.965 0-1.836-.17-2.615-.513a6.112 6.112 0 01-1.961-1.379 6.102 6.102 0 01-1.26-2.008 6.785 6.785 0 01-.445-2.43c0-.84.148-1.643.444-2.406a6.05 6.05 0 011.261-2.032 6.39 6.39 0 011.985-1.378c.778-.343 1.642-.514 2.591-.514.95 0 1.806.17 2.569.514.778.342 1.44.802 1.985 1.378a5.87 5.87 0 011.284 2.032 6.6 6.6 0 01.444 2.406c0 .841-.148 1.65-.444 2.43a5.918 5.918 0 01-1.284 2.008 6.047 6.047 0 01-1.985 1.379c-.763.342-1.619.514-2.569.514zm-3.642-6.307c0 .592.093 1.137.28 1.636.187.498.444.934.77 1.308.328.358.709.646 1.145.864.451.203.934.304 1.448.304a3.34 3.34 0 001.424-.304c.451-.218.84-.514 1.167-.888a4.21 4.21 0 00.77-1.308 4.594 4.594 0 00.281-1.635c0-.576-.093-1.113-.28-1.612a4.152 4.152 0 00-.77-1.331 3.36 3.36 0 00-1.168-.864 3.138 3.138 0 00-1.424-.328c-.499 0-.973.11-1.425.328a3.718 3.718 0 00-1.144.887 4.511 4.511 0 00-.794 1.332 4.555 4.555 0 00-.28 1.611zm17.689 6.307c-.965 0-1.837-.17-2.615-.513a6.112 6.112 0 01-1.962-1.379 6.102 6.102 0 01-1.26-2.008 6.787 6.787 0 01-.444-2.43 6.6 6.6 0 01.443-2.406 6.05 6.05 0 011.261-2.032 6.39 6.39 0 011.985-1.378c.778-.343 1.642-.514 2.592-.514.95 0 1.805.17 2.568.514.779.342 1.44.802 1.985 1.378a5.87 5.87 0 011.284 2.032 6.6 6.6 0 01.444 2.406c0 .841-.148 1.65-.444 2.43a5.918 5.918 0 01-1.284 2.008 6.047 6.047 0 01-1.985 1.379c-.763.342-1.619.514-2.568.514zm-3.643-6.307c0 .592.094 1.137.28 1.636.187.498.444.934.77 1.308.328.358.71.646 1.145.864.451.203.934.304 1.448.304a3.34 3.34 0 001.424-.304c.451-.218.84-.514 1.167-.888a4.21 4.21 0 00.771-1.308c.187-.498.28-1.043.28-1.635 0-.576-.093-1.113-.28-1.612a4.152 4.152 0 00-.77-1.331 3.36 3.36 0 00-1.168-.864 3.138 3.138 0 00-1.424-.328c-.498 0-.973.11-1.425.328a3.718 3.718 0 00-1.144.887 4.513 4.513 0 00-.794 1.332 4.555 4.555 0 00-.28 1.611zm30.881 6.074h-2.568V40.35c0-1.137-.187-1.97-.56-2.5-.374-.53-.919-.794-1.635-.794-.732 0-1.401.272-2.008.817-.591.53-1.02 1.223-1.284 2.08v7.24h-2.569V40.35c0-1.153-.186-1.986-.56-2.5-.374-.53-.911-.794-1.611-.794-.732 0-1.401.265-2.008.794-.607.53-1.043 1.223-1.308 2.08v7.264h-2.568V34.978h2.335v2.453c.482-.857 1.113-1.511 1.891-1.963.794-.467 1.697-.7 2.709-.7 1.011 0 1.805.264 2.381.794.592.53.958 1.191 1.098 1.985.513-.903 1.159-1.588 1.938-2.055.778-.483 1.665-.724 2.662-.724.716 0 1.307.14 1.774.42.483.265.864.623 1.144 1.075.28.451.475.98.584 1.588.109.592.163 1.223.163 1.892v7.452z" fill="#fff"/><path fill="#fff" d="M46.048 21.536h21.574v2.288H46.048zm.007 9.026h16.021v2.281H46.055z"/><path fill-rule="evenodd" clip-rule="evenodd" d="M28.906 42.5l-16.617-8.608.287-.54 16.617 8.609-.287.539zm9.877-8.435V16.153h.619v17.912h-.619zm-.309-11.135L29.13 28.4l-.267-.562 9.295-5.431.316.524zm-.936-7.367l-9.181-5.232-11.532 6.696 8.981 5.15 11.732-6.614zm-9.184-5.938L15.601 17.03l10.202 5.85 12.98-7.317-.536-.3-9.893-5.638z" fill="#fff"/><path d="M12.387 33.927l-.264-.153-.154-11.655-7.729-4.495m8.147 16.303l10.198-5.797m-10.198 5.797l10.198 5.298m.513-11.387V39.41l-.513-.186m.513-11.387L4.24 17.03v-3.062l.464-.305L25.88 1.703 46.729 14.12v7.388h.672l.024-7.797L25.881 1 4.378 13.144l-.756.498v25.141L26.345 51l2.318-1.253v.012l.455-.258.24-.13v-.006L47.347 38.85l.026-7.494h-.643v7.14L29.282 48.707v-6.171l12.751-7.081-13.17-7.616m-5.765 0l-.513.292m6.278-.292l-.122.07V49.01l-2.396 1.295L4.24 38.421V17.624m24.623 10.214l.267.561 9.344-5.468-.316-.524-9.295 5.43zM4.24 17.624v-.228M22.585 28.13v11.095m15.662-23.962l-9.893-5.638-12.753 7.405 10.202 5.85 12.98-7.317-.536-.3zM21.865 27.836l-9.133 5.191-.14-10.505 9.273 5.314zm18.962 7.635l-11.468 6.301V28.823l11.468 6.648zm-12.47-25.14l9.181 5.232-11.732 6.614-8.98-5.15 11.531-6.696zm-16.068 23.56L28.906 42.5l.288-.54-16.618-8.608-.287.54zm26.494-17.738v17.912h.619V16.153h-.619z" stroke="#fff" stroke-width="1.5"/></svg>
